X: 1
T: The Exile's Jig
R: slip jig
M: 9/8
L: 1/8
K: Edor
edB B2A G2E|E2e e2d efg|edB B2A G2A|BAB d2B def:|
e2f gfe fed|Bee edB edB|e2f gfe fed|BAB d2B def|
e2f gfe fed|Bee e2d efg|agf gfe fed|BAB d2B def||


Tune 1327	Setting 14667

